images/twitter.svg

<svg height="38" viewBox="0 0 38 38" width="38" xmlns="http://www.w3.org/2000/svg">
  <style>
    path { fill: currentColor; }
    @media (prefers-color-scheme: dark) {
        path { fill: white; }
    }
  </style>
  <title>Twitter</title>
  <path d="m38 7.66960962c-1.39802.62253669-2.90073 1.04309226-4.47754 1.23229459 1.60949-.96851755 2.84582-2.50216262 3.42779-4.32971976-1.50651.8969945-3.1749 1.5481404-4.95083 1.8990802-1.42196-1.521057-3.44812-2.47126465-5.6905-2.47126465-4.3054 0-7.79627 3.50386686-7.79627 7.8257668 0 .6133817.06897 1.2107423.20178 1.7834989-6.47938-.3263359-12.22384-3.4420709-16.06906-8.17689729-.67108 1.1558126-1.05564 2.5000646-1.05564 3.9343403 0 2.71520599 1.37636 5.11056079 3.46826 6.51393849-1.27794-.0406251-2.48007-.3927092-3.53115-.9788168-.00076.0326145-.00076.0654197-.00076.0984157 0 3.7916756 2.68736 6.9547113 6.25385 7.6737564-.65417.178903-1.34292.2744578-2.0539.2744578-.50236 0-.99066-.0492078-1.4668-.1403759.99218 3.1090596 3.87125 5.3718584 7.28289 5.4347987-2.66817 2.099154-6.02965 3.3501399-9.6824 3.3501399-.62928 0-1.24982-.0370012-1.85972-.1094779 3.45021 2.2206478 7.54813 3.5164549 11.95081 3.5164549 14.33987 0 22.18174-11.9250869 22.18174-22.2669394 0-.3393054-.0076-.6767035-.02261-1.0125758 1.52323-1.1031716 2.84487-2.48156395 3.89006-4.05087518z" fill-rule="evenodd"/>
</svg>

<?xml version="1.0" encoding="UTF-8"?>
<svg width="38px" height="38px" viewBox="0 0 38 38" version="1.1" xmlns="http://www.w3.org/2000/svg" xmlns:xlink="http://www.w3.org/1999/xlink">
  <g stroke="none" stroke-width="1" fill="none" fill-rule="evenodd">
    <path d="M38,7.66960962 C36.60198,8.29214631 35.09927,8.71270188 33.52246,8.90190421 C35.13195,7.93338666 36.36828,6.39974159 36.95025,4.57218445 C35.44374,5.46917895 33.77535,6.12032485 31.99942,6.47126465 C30.57746,4.95020765 28.5513,4 26.30892,4 C22.00352,4 18.51265,7.50386686 18.51265,11.8257668 C18.51265,12.4391485 18.58162,13.0365091 18.71443,13.6092657 C12.23505,13.2829298 6.49059,10.1671948 2.64537,5.43236841 C1.97429,6.58818101 1.58973,7.93243301 1.58973,9.36670871 C1.58973,12.0819147 2.96609,14.4772695 5.05799,15.8806472 C3.78005,15.8400221 2.57792,15.487938 1.52684,14.9018304 C1.52608,14.9344449 1.52608,14.9672501 1.52608,15.0002461 C1.52608,18.7919217 4.21344,21.9549574 7.77993,22.6740025 C7.12576,22.8529055 6.43701,22.9484603 5.72603,22.9484603 C5.22367,22.9484603 4.73537,22.8992525 4.25923,22.8080844 C5.25141,25.917144 8.13048,28.1799428 11.54212,28.2428831 C8.87395,30.3420371 5.51247,31.593023 1.85972,31.593023 C1.23044,31.593023 0.6099,31.5560218 0,31.4835451 C3.45021,33.7041929 7.54813,35 11.95081,35 C26.29068,35 34.13255,23.0749131 34.13255,12.7330606 C34.13255,12.3937552 34.12495,12.0563571 34.10994,11.7204848 C35.63317,10.6173132 36.95481,9.23892085 38,7.66960962 L38,7.66960962 Z" id="Shape" fill="#000000"></path>
  </g>
</svg>
